dist/img/logo.svg

<svg width="95" height="45" viewBox="0 0 95 45" fill="none" xmlns="http://www.w3.org/2000/svg">
<path d="M8.32804 0.117874L2.53373 1.06534C0.851524 1.34041 -0.232168 2.87229 0.0424656 4.48308L3.66272 25.7164C3.93738 27.3271 5.47047 28.4311 7.15268 28.1559C8.79754 27.887 9.91858 26.3491 9.64395 24.7384L8.38935 17.3799L11.193 16.9215C15.9406 16.145 19.1481 11.7447 18.3554 7.09541C17.5689 2.48269 13.0756 -0.658425 8.32804 0.117874ZM10.1944 11.064L7.39066 11.5224L6.52304 6.43375L9.32673 5.97532C10.7846 5.73692 12.137 6.6823 12.3742 8.07344C12.6239 9.53781 11.6523 10.8256 10.1944 11.064Z" fill="#49CBF4"/>
<path d="M37.8997 24.3226L29.7594 6.50168C29.4767 5.91687 29.0367 5.45518 28.4395 5.20896C27.8108 4.96274 27.0252 4.96274 26.3966 5.20896C25.8309 5.45518 25.3279 5.91687 25.0766 6.50168L16.9364 24.3226C16.3706 25.5538 16.9364 27.0312 18.1935 27.5545C19.2936 28.0161 20.8337 27.7083 21.4937 26.2925L22.625 23.861H32.2426L33.3425 26.2925C34.0025 27.7392 35.6055 28.0777 36.6425 27.5545C37.8684 26.9389 38.4654 25.5538 37.8997 24.3226ZM24.8879 18.9673L27.4338 13.3653L29.9797 18.9673H24.8879Z" fill="#49CBF4"/>
<path d="M54.9935 21.8577L51.7992 16.5596C53.8712 15.4888 55.2525 13.3471 55.2525 10.8671C55.2525 7.31632 52.3173 4.4137 48.6626 4.4137H44.1735C42.9362 4.4137 41.9004 5.42821 41.9004 6.66815V23.0129C41.9004 24.253 42.9362 25.2674 44.1735 25.2674C45.4686 25.2674 46.5045 24.253 46.5045 23.0129V17.3486H46.9361L51.0224 24.1684C51.7419 25.3521 53.1517 25.5211 54.159 24.9294C55.2525 24.2812 55.6265 22.9567 54.9935 21.8577ZM50.677 10.8671C50.677 11.9944 49.7849 12.8398 48.6626 12.8398H46.5045V8.92261H48.6626C49.7849 8.92261 50.677 9.79621 50.677 10.8671Z" fill="#49CBF4"/>
<path d="M72.4313 1.1886H60.8691C59.2067 1.1886 57.877 2.4909 57.877 4.0826C57.877 5.67433 59.2067 6.97663 60.8691 6.97663H63.7134V25.0642C63.7134 26.656 65.0432 27.9582 66.6686 27.9582C68.2569 27.9582 69.5869 26.656 69.5869 25.0642V6.97663H72.4313C74.0934 6.97663 75.4234 5.67433 75.4234 4.0826C75.4234 2.4909 74.0934 1.1886 72.4313 1.1886Z" fill="#49CBF4"/>
<path d="M94.4074 9.57671C93.4549 8.50198 91.8474 8.3441 90.7583 9.24604L85.4979 13.5734L83.1516 7.25003C82.6691 5.93567 81.1963 5.28527 79.854 5.75788C78.5036 6.26129 77.8078 7.69538 78.3219 9.01797L81.6335 17.97L79.191 26.8967C78.8288 28.2203 79.6259 29.6171 81.0088 29.9802C82.3917 30.3431 83.8267 29.5318 84.1889 28.2082L86.6314 19.2813L94.0696 13.1502C95.1587 12.2482 95.3199 10.674 94.4074 9.57671Z" fill="#49CBF4"/>
<path d="M22.5651 42.1785C22.5651 41.8805 22.4501 41.6384 22.2204 41.452C22.0003 41.2659 21.7179 41.0983 21.3732 40.9492C21.0381 40.7909 20.6693 40.6325 20.2672 40.4742C19.8747 40.3066 19.5059 40.1064 19.1614 39.8735C18.8262 39.6316 18.5438 39.3334 18.314 38.9797C18.0938 38.6257 17.9837 38.1742 17.9837 37.6246C17.9837 37.1498 18.0651 36.74 18.2278 36.3955C18.3906 36.0416 18.6204 35.7482 18.9172 35.5155C19.2236 35.2826 19.5826 35.1102 19.9944 34.9987C20.4061 34.8868 20.8657 34.8311 21.3732 34.8311C21.9571 34.8311 22.5077 34.8821 23.0247 34.9847C23.5417 35.0777 23.9679 35.2175 24.303 35.4037L23.6855 37.01C23.4748 36.8796 23.1587 36.7633 22.7374 36.661C22.3161 36.5492 21.8614 36.4931 21.3732 36.4931C20.9136 36.4931 20.5592 36.5817 20.3102 36.7585C20.071 36.9356 19.9512 37.1731 19.9512 37.471C19.9512 37.7504 20.0615 37.9833 20.2816 38.1694C20.5113 38.3558 20.7938 38.5279 21.1289 38.6863C21.4735 38.8446 21.8424 39.0075 22.2349 39.1751C22.6369 39.3429 23.0057 39.5478 23.3406 39.7897C23.6855 40.0226 23.9679 40.316 24.1881 40.6698C24.4177 41.0145 24.5327 41.4475 24.5327 41.9689C24.5327 42.4904 24.4417 42.942 24.2598 43.324C24.0875 43.6964 23.8385 44.0084 23.5129 44.2598C23.1971 44.5112 22.8092 44.6973 22.3498 44.8184C21.8997 44.9395 21.4018 45 20.856 45C20.1379 45 19.5059 44.935 18.9603 44.8044C18.4145 44.6741 18.0124 44.5437 17.7539 44.4134L18.3858 42.7791C18.4911 42.8349 18.6252 42.8954 18.7879 42.9607C18.9603 43.0258 19.1518 43.0863 19.3624 43.1423C19.5731 43.1981 19.7932 43.2447 20.0232 43.2819C20.2624 43.3192 20.5067 43.3377 20.7554 43.3377C21.3395 43.3377 21.7848 43.2447 22.0911 43.0585C22.4072 42.8629 22.5651 42.5695 22.5651 42.1785ZM33.484 36.7308H30.5542V44.8044H28.5866V36.7308H25.6426V35.0264H33.484V36.7308ZM38.8445 42.6393H35.7566L34.9955 44.8044H33.0279L36.647 34.9566H38.0976L41.717 44.8044H39.6488L38.8445 42.6393ZM36.2594 41.1028H38.4137L37.6668 38.9237L37.3651 37.3872H37.2933L36.9919 38.9377L36.2594 41.1028ZM49.1038 36.7308H46.174V44.8044H44.2064V36.7308H41.2622V35.0264H49.1038V36.7308ZM50.8325 35.0264H52.8001V44.8044H50.8325V35.0264ZM54.9135 39.9155C54.9135 38.2858 55.2821 37.0335 56.0192 36.1579C56.7566 35.2733 57.8097 34.8311 59.179 34.8311C59.8971 34.8311 60.5242 34.9521 61.0604 35.1941C61.5965 35.4362 62.0417 35.7809 62.3961 36.2279C62.7503 36.6747 63.0136 37.2103 63.186 37.8342C63.3583 38.4581 63.4444 39.1518 63.4444 39.9155C63.4444 41.5451 63.071 42.8024 62.3241 43.687C61.5869 44.5625 60.5386 45 59.179 45C58.4514 45 57.8194 44.879 57.2831 44.6368C56.7469 44.3949 56.3017 44.0502 55.9475 43.6032C55.6028 43.1563 55.3443 42.6208 55.172 41.9969C54.9997 41.373 54.9135 40.679 54.9135 39.9155ZM56.9815 39.9155C56.9815 40.4091 57.0247 40.8654 57.1108 41.2844C57.197 41.6942 57.3263 42.0481 57.4987 42.3461C57.6805 42.644 57.9102 42.8769 58.188 43.0445C58.4655 43.2121 58.796 43.2959 59.179 43.2959C59.8778 43.2959 60.4187 43.0305 60.8017 42.4997C61.1849 41.9689 61.3763 41.1076 61.3763 39.9155C61.3763 39.4405 61.3333 38.9982 61.2469 38.5885C61.1705 38.1787 61.046 37.8202 60.8737 37.513C60.7014 37.2056 60.4763 36.9682 60.1986 36.8006C59.921 36.6237 59.581 36.5351 59.179 36.5351C58.4799 36.5351 57.939 36.8098 57.556 37.3592C57.1731 37.8995 56.9815 38.7516 56.9815 39.9155ZM67.8523 39.7059L67.0624 38.1694H66.9906L67.2206 39.7059V44.8044H65.3535V34.9566H66.7895L70.5956 40.167L71.3567 41.6617H71.4284L71.1987 40.167V35.0264H73.0658V44.8744H71.6296L67.8523 39.7059Z" fill="white"/>
</svg>

<svg xmlns="http://www.w3.org/2000/svg" width="95" height="45" fill="none">
  <path fill="#49CBF4" d="m8.328.118-5.794.947C.852 1.34-.232 2.872.042 4.483l3.62 21.233c.275 1.611 1.808 2.715 3.49 2.44 1.646-.269 2.767-1.807 2.492-3.418L8.389 17.38l2.804-.458c4.748-.777 7.955-5.177 7.162-9.827C17.57 2.483 13.075-.658 8.328.118Zm1.866 10.946-2.803.458-.868-5.088 2.804-.459c1.458-.238 2.81.707 3.047 2.098.25 1.465-.722 2.753-2.18 2.991ZM37.9 24.323 29.76 6.502c-.283-.585-.723-1.047-1.32-1.293a2.917 2.917 0 0 0-2.043 0c-.566.246-1.07.708-1.32 1.293l-8.14 17.82a2.416 2.416 0 0 0 1.256 3.233c1.1.461 2.64.153 3.3-1.262l1.132-2.432h9.618l1.1 2.431c.66 1.447 2.262 1.786 3.3 1.262 1.225-.615 1.822-2 1.257-3.231Zm-13.012-5.356 2.546-5.602 2.546 5.602h-5.092ZM54.993 21.858 51.8 16.56a6.373 6.373 0 0 0 3.453-5.693c0-3.55-2.935-6.453-6.59-6.453h-4.489c-1.237 0-2.273 1.014-2.273 2.254v16.345c0 1.24 1.036 2.254 2.273 2.254 1.296 0 2.331-1.014 2.331-2.254v-5.664h.432l4.086 6.82c.72 1.183 2.13 1.352 3.137.76 1.093-.648 1.468-1.972.834-3.071Zm-4.316-10.99c0 1.126-.892 1.972-2.014 1.972h-2.158V8.923h2.158c1.122 0 2.014.873 2.014 1.944ZM72.431 1.189H60.87c-1.662 0-2.992 1.302-2.992 2.894 0 1.591 1.33 2.894 2.992 2.894h2.844v18.087c0 1.592 1.33 2.894 2.956 2.894 1.588 0 2.918-1.302 2.918-2.894V6.977h2.844c1.662 0 2.992-1.303 2.992-2.894 0-1.592-1.33-2.894-2.992-2.894ZM94.407 9.577c-.952-1.075-2.56-1.233-3.649-.331l-5.26 4.327-2.346-6.323c-.483-1.314-1.956-1.965-3.298-1.492-1.35.503-2.046 1.937-1.532 3.26l3.311 8.952-2.442 8.927c-.362 1.323.435 2.72 1.818 3.083s2.818-.448 3.18-1.772l2.442-8.927 7.439-6.13a2.513 2.513 0 0 0 .337-3.574Z"/>
  <path fill="#fff" d="M22.565 42.178a.892.892 0 0 0-.345-.726 3.394 3.394 0 0 0-.847-.503 18.244 18.244 0 0 0-1.106-.475 6.59 6.59 0 0 1-1.106-.6 3.325 3.325 0 0 1-.847-.894c-.22-.354-.33-.806-.33-1.355 0-.475.081-.885.244-1.23.163-.353.392-.647.69-.88A3.096 3.096 0 0 1 19.993 35a5.256 5.256 0 0 1 1.38-.168c.583 0 1.134.051 1.65.154.518.093.944.233 1.279.419l-.617 1.606c-.211-.13-.527-.247-.949-.349a5.304 5.304 0 0 0-1.364-.168c-.46 0-.814.089-1.063.265a.842.842 0 0 0-.359.713c0 .28.11.512.33.698.23.187.513.359.848.517.345.159.713.322 1.106.49.402.167.77.372 1.106.614.345.233.627.526.847.88.23.344.345.777.345 1.299 0 .521-.091.973-.273 1.355a2.483 2.483 0 0 1-.747.936 3.118 3.118 0 0 1-1.163.558c-.45.122-.948.182-1.494.182-.718 0-1.35-.065-1.896-.196-.546-.13-.948-.26-1.206-.39l.632-1.635a4.298 4.298 0 0 0 .976.363c.211.056.431.103.661.14.24.037.484.056.732.056.585 0 1.03-.093 1.336-.28.316-.195.474-.489.474-.88Zm10.919-5.447h-2.93v8.073h-1.967v-8.073h-2.944v-1.705h7.841v1.705Zm5.36 5.908h-3.087l-.761 2.165h-1.968l3.619-9.847h1.45l3.62 9.847h-2.068l-.805-2.165Zm-2.585-1.536h2.155l-.747-2.18-.302-1.536h-.072l-.301 1.55-.733 2.166Zm12.845-4.372h-2.93v8.073h-1.968v-8.073h-2.944v-1.705h7.842v1.705Zm1.729-1.705H52.8v9.778h-1.967v-9.778Zm4.08 4.89c0-1.63.37-2.883 1.106-3.758.738-.885 1.79-1.327 3.16-1.327.718 0 1.345.121 1.881.363s.982.587 1.336 1.034c.354.447.618.982.79 1.606.172.624.258 1.318.258 2.081 0 1.63-.373 2.887-1.12 3.772C61.587 44.563 60.54 45 59.18 45c-.728 0-1.36-.121-1.896-.363a3.526 3.526 0 0 1-1.336-1.034 4.605 4.605 0 0 1-.775-1.606 7.813 7.813 0 0 1-.258-2.081Zm2.069 0c0 .493.043.95.129 1.368.086.41.215.764.388 1.062.181.298.411.53.689.699.277.167.608.25.991.25.699 0 1.24-.264 1.623-.795s.574-1.392.574-2.584c0-.475-.043-.918-.13-1.327-.076-.41-.2-.769-.372-1.076a1.891 1.891 0 0 0-.675-.712c-.278-.177-.618-.266-1.02-.266-.7 0-1.24.275-1.623.824-.383.54-.575 1.393-.575 2.556Zm10.87-.21-.79-1.537h-.071l.23 1.537v5.098h-1.868v-9.847h1.437l3.806 5.21.76 1.495h.072l-.23-1.495v-5.14h1.868v9.847H71.63l-3.778-5.168Z"/>
</svg>
